src/16/actions/document-print-direct.svg

<svg xmlns="http://www.w3.org/2000/svg" viewBox="0 0 16 16"><path d="M4 2v3H2v7h3v2h5v-1H6v-1h4v-2H4v1H3V6h10v3h1V5h-2V2H4zm1 1h6v2H5V3zM4 7v1h2V7H4zm7 2v5l3-2.5L11 9z" fill="currentColor" color="#5d656b"/></svg>

<svg xmlns="http://www.w3.org/2000/svg" viewBox="0 0 16 16">
  <defs id="defs3051">
    <style type="text/css" id="current-color-scheme">
      .ColorScheme-Text {
        color:#5d656b;
      }
      </style>
  </defs>
 <path style="fill:currentColor;fill-opacity:1;stroke:none" 
     d="M 4 2 L 4 3 L 4 5 L 3 5 L 2 5 L 2 6 L 2 11 L 2 12 L 3 12 L 5 12 L 5 13 L 5 14 L 10 14 L 10 13 L 6 13 L 6 12 L 10 12 L 10 10 L 4 10 L 4 11 L 3 11 L 3 6 L 13 6 L 13 7 L 13 9 L 14 9 L 14 7 L 14 6 L 14 5 L 12 5 L 12 3 L 12 2 L 4 2 z M 5 3 L 11 3 L 11 5 L 5 5 L 5 3 z M 4 7 L 4 8 L 6 8 L 6 7 L 4 7 z M 11 9 L 11 14 L 14 11.5 L 11 9 z "
     class="ColorScheme-Text"
     />
</svg>
